X:1
T:Quem pastores
T:Carl Loewe
T:Quem pastores
T:Manfred Hößl - mhoessl.de
T:Manfred Hößl - mhoessl.de
C:Carl Loewe
Z:Manfred Hößl - mhoessl.de
%%score [ ( 1 2 ) 3 4 5 ]
L:1/8
M:6/8
K:C
V:1 treble nm="Sopran" snm="S."
V:2 treble 
V:3 treble nm="Alt" snm="A."
V:4 treble-8 nm="Tenor" snm="T."
V:5 bass nm="Bass" snm="B."
V:1
!mf! G2 c e2 c | G>e d/c/ c2 B | G2 d d/e/f/e/ d | G2 d d/e/f/e/ d | G2 c e2 c | G>e d/c/ c2 B | %6
w: Quem pas- to- res|lau- * da- * ve- re,|den die Hir- * * * ten|lob- ten seh- * * * re,|qui- bus an- ge-|li * di- * xe- re,|
w: Ex- ul- te- mus|cum * Ma- * ri- a,|freut euch al- * * * le|mit Ma- ri- * * * a,|in coe- les- ti|hi- * rar- * chi- a,|
w: Chri- sto re- gi,|De- * o * na- to,|lobt ihr Men- * * * schen|all- zu- glei- * * * che,|per Ma- ri- am|no- * bis * da- to,|
 G2 d d/e/f/e/ d | G2 d d/e/f/e/ d | e2 d c2 B | Ac B A2 ^G | e2 d c2 B | Ac B A2 ^G | A2 A G2 c | %13
w: und die En- * * * gel|noch viel meh- * * * re,|ab- sit vo- bis|iam * ti- me- re,|fürch- tet euch für-|baß * nicht meh- re,|na- tus est rex|
w: in des Him- * * * mels|Hie- rar- chi- * * * en,|na- tum pro- mat|vo- * ce pi- a,|da die En- gel|sin- * gen al- le:|laus ho- nor et|
w: Got- tes Sohn * * * vom|Him- mel- rei- * * * che,|me- ri- to re-|so- * nat ve- re,|uns zum Trost ist|er * ge- bo- ren,|dul- ci cum me-|
 c2 d e3 |!f! e e e (g f) d |!p! (c d) B!>(! c2!>)! G |!mf! Ad B c2 G |"_rit." (A A) G G3 |] %18
w: glo- ri- ae,|euch ist ge- bo- ren ein|Kö- nig der Ehr, rex|glo- * ri- ae, ein|Kö- nig der Ehr.|
w: glo- ri- a,|Lob * und Eh- re sei|Gott * dem Herrn, et|glo- * ri- a, sei|Gott * dem Herrn.|
w: lo- di- a,|sin- * get ihm * ein|lieb- li- ches Lied, me-|lo- * di- a, ein|lieb- li- ches Lied.|
V:2
 x6 | x6 | G2 G G2 G | G2 G G2 G | x6 | x6 | G2 G G2 G | G2 G G2 G | x6 | x6 | x6 | x6 | x6 | x6 | %14
 x6 | x6 | x6 | x6 |] %18
V:3
!mf! E2 E E2 E | E2 E E2 D | [DF]2 [DF] [DF]2 [DF] | [DF]2 [DF] [DF]2 [DF] | E2 E E2 E | %5
w: Quem pas- to- res|lau- da- ve- re,|den die Hir- ten|lob- ten seh- re,|qui- bus an- ge-|
w: Ex- ul- te- mus|cum Ma- ri- a,|freut euch al- le|mit Ma- ri- a,|in coe- les- ti|
w: Chri- sto re- gi,|De- o na- to,|lobt ihr Men- schen|all- zu- glei- che,|per Ma- ri- am|
 E2 E E2 D | [DF]2 [DF] [DF]2 [DF] | [DF]2 [DF] [DF]2 [DF] | EA ^G A2 E | E2 F E2 E | EA ^G A2 E | %11
w: li di- xe- re,|und die En- gel|noch viel meh- re,|ab- * sit vo- bis|iam ti- me- re,|fürch- * tet euch für-|
w: hi- rar- chi- a,|in des Him- mels|Hie- rar- chi- en,|na- * tum pro- mat|vo- ce pi- a,|da * die En- gel|
w: no- bis da- to,|Got- tes Sohn vom|Him- mel- rei- che,|me- * ri- to re-|so- nat ve- re,|uns * zum Trost ist|
 E2 F E2 E | E2 F F2 E | E2 G G3 |!f! G G G (A A) A |!p! (G G) F!>(! E2!>)! G |!mf! FA G/F/ E2 G | %17
w: baß nicht meh- re,|na- tus est rex|glo- ri- ae,|euch ist ge- bo- ren ein|Kö- nig der Ehr, rex|glo- * ri- * ae, ein|
w: sin- gen al- le:|laus ho- nor et|glo- ri- a,|Lob * und Eh- re sei|Gott * dem Herrn, et|glo- * ri- * a, sei|
w: er ge- bo- ren,|dul- ci cum me-|lo- di- a,|sin- * get ihm * ein|lieb- li- ches Lied, me-|lo- * di- * a, ein|
"_rit." (F F) F E3 |] %18
w: Kö- nig der Ehr.|
w: Gott * dem Herrn.|
w: lieb- li- ches Lied.|
V:4
!mf! G2 G G2 G | G2 G G2 G | B2 B B2 B | B2 B B2 B | G2 G G2 G | G2 G G2 G | B2 B B2 B | %7
w: Quem pas- to- res|lau- da- ve- re,|den die Hir- ten|lob- ten seh- re,|qui- bus an- ge-|li di- xe- re,|und die En- gel|
w: Ex- ul- te- mus|cum Ma- ri- a,|freut euch al- le|mit Ma- ri- a,|in coe- les- ti|hi- rar- chi- a,|in des Him- mels|
w: Chri- sto re- gi,|De- o na- to,|lobt ihr Men- schen|all- zu- glei- che,|per Ma- ri- am|no- bis da- to,|Got- tes Sohn vom|
 B2 B B2 B | e2 e e2 d | ce d c2 B | e2 e e2 d | ce d c2 B | c2 c B2 c | c2 B c3 | %14
w: noch viel meh- re,|ab- sit vo- bis|iam * ti- me- re,|fürch- tet euch für-|baß * nicht meh- re,|na- tus est rex|glo- ri- ae,|
w: Hie- rar- chi- en,|na- tum pro- mat|vo- * ce pi- a,|da die En- gel|sin- * gen al- le:|laus ho- nor et|glo- ri- a,|
w: Him- mel- rei- che,|me- ri- to re-|so- * nat ve- re,|uns zum Trost ist|er * ge- bo- ren,|dul- ci cum me-|lo- di- a,|
!f! c c c (c d) f |!p! (e f) d!>(! c2!>)! c |!mf! cf d c2 c |"_rit." (c c) B c3 |] %18
w: euch ist ge- bo- ren ein|Kö- nig der Ehr, rex|glo- * ri- ae, ein|Kö- nig der Ehr.|
w: Lob * und Eh- re sei|Gott * dem Herrn, et|glo- * ri- a, sei|Gott * dem Herrn.|
w: sin- * get ihm * ein|lieb- li- ches Lied, me-|lo- * di- a, ein|lieb- li- ches Lied.|
V:5
!mf! C,2 C, C,2 C, | C,2 E, G,2 G,, | G,2 G, G,2 G,, | G,2 G, G,2 G, | C,2 C, C,2 C, | %5
w: Quem pas- to- res|lau- da- ve- re,|den die Hir- ten|lob- ten seh- re,|qui- bus an- ge-|
w: Ex- ul- te- mus|cum Ma- ri- a,|freut euch al- le|mit Ma- ri- a,|in coe- les- ti|
w: Chri- sto re- gi,|De- o na- to,|lobt ihr Men- schen|all- zu- glei- che,|per Ma- ri- am|
 C,2 E, G,2 G,, | G,2 G, G,2 G,, | G,2 G, G,2 G, | C2 B, E,A, ^G, | A,2 D, E,2 E, | %10
w: li di- xe- re,|und die En- gel|noch viel meh- re,|ab- sit vo- * bis|iam ti- me- re,|
w: hi- rar- chi- a,|in des Him- mels|Hie- rar- chi- en,|na- tum pro- * mat|vo- ce pi- a,|
w: no- bis da- to,|Got- tes Sohn vom|Him- mel- rei- che,|me- ri- to * re-|so- nat ve- re,|
 C2 B, E,A, ^G, | A,2 D, E,2 E, | A,2 F, G,2 C, | A,2 G, C3 |!f! C, C, C, (F, F,) F, | %15
w: fürch- tet euch * für-|baß nicht meh- re,|na- tus est rex|glo- ri- ae,|euch ist ge- bo- ren ein|
w: da die En- * gel|sin- gen al- le:|laus ho- nor et|glo- ri- a,|Lob * und Eh- re sei|
w: uns zum Trost * ist|er ge- bo- ren,|dul- ci cum me-|lo- di- a,|sin- * get ihm * ein|
!p! (G, G,) G,!>(! A,2!>)! E, |!mf! F,D, G, A,2 E, |"_rit." (F, D,) G, C,3 |] %18
w: Kö- nig der Ehr, rex|glo- * ri- ae, ein|Kö- nig der Ehr.|
w: Gott * dem Herrn, et|glo- * ri- a, sei|Gott * dem Herrn.|
w: lieb- li- ches Lied, me-|lo- * di- a, ein|lieb- li- ches Lied.|

